X:1
T:Banjer-Pickin' Girl
C:Composer Unknown
M:4/4
L:1/8
Q:1/4=150 "   Happy"
K:A
a, a, |c c2 c c b, a, f, | a,7 e|
|f f2 f f e c a, |e7 e|
|f f2 f f e c a, |e e c b, a, f,2 a,|
|c c2 c b, a, f, a, |a,8 |]
W: 1. Oh, I'm goin' 'round the world, baby mine (baby mine)
W:    I'm goin' 'round the world, baby mine
W:    I'm goin' 'round this world, I be a banjer-pickin' girl
W:    I'm goin' 'round this world, baby mine
W: -
W: 2. Oh, I'm goin' Tennessee, baby mine (baby mine)
W:    I'm goin' Tennessee, baby mine
W:    I'm goin' Tennessee, don't you try followin' me
W:    I'm goin' Tennessee, baby mine
W: -
W: 3. Oh, I'm goin' to Arkansas, baby mine (baby mine)
W:    Oh, I'm goin' to Arkansas, baby mine
W:    I'm goin' to Arkansas, you take care of Ma and Pa
W:    Oh, I'm goin' to Arkansas, baby mine
W: -
W: 4. Oh, I'm goin' Chattanooga, baby mine (baby mine)
W:    Oh, I'm goin' Chattanooga, baby mine
W:    I'm goin' Chattanooga, and from there on to Cuba
W:    Oh, I'm goin' Chattanooga, baby mine
W: -
W: 5. Oh, I'm goin' North C'lina, baby mine (baby mine)
W:    Oh, I'm goin' North C'lina, baby mine
W:    I'm goin' North C'lina, and from there on to China
W:    Oh, I'm goin' North C'lina, baby mine
W: -
W: 6. Oh, I'm goin' 'cross the ocean, baby mine (baby mine)
W:    Oh, I'm goin' 'cross the ocean, baby mine
W:    I'm goin' 'cross the ocean, if I don't change my notion
W:    Oh, I'm goin' 'cross the ocean, baby mine
W: -
W: 7. Oh, if you ain't got no money, baby mine (baby mine)
W:    An you ain't got no money, baby mine
W:    An you ain't got no money, get yourself 'nother honey
W:    I'm goin' around this world, baby mine
W: -
W: 8. Oh, I'm goin' 'round this world, baby mine (baby mine)
W:    I'm goin' 'round this world, baby mine
W:    I'm goin' 'round this world, I be a banjer-pickin' girl
W:    I'm goin' 'round this world, baby mine

